X: 5
T: Larkin's Beehive
R: reel
M: 4/4
L: 1/8
K: Gmaj
|:A|Bd ~d2 edge|~d2 BG AGEG|Bd ~d2 edge|dBAc BGGA|
BABd egge|~d2 BG AGEG|BABG ABGB|dBAc BG G:|
|:A|BABd eg ~g2|ea ~a2 gedB|GBdB eBdB|(3ABc BG AGEG|
BABd eg ~g2|ea ~a2 gedc|BG ~G2 ABGB|dBAc BG G:|

composer: Paddy O'Brien
